!!!OTL: 563. Der leichtfertige Liebhaber.
!!!ARE: Europa, Mitteleuropa, Deutschland, Hessen, Darmstadt
!!!SCT: E0563
!!!TXL: @@DE
!!!YEM: Copyright 1995, estate of Helmut Schaffrath.
**kern	**text
*ICvox	*
*M6/8	*
*k[f#]	*
*G:	*
!LO:TX:a:t=Mäßig geschwind.	!
!LO:TX:a:t=Aus dem Heſſen-Darmſtädtiſchen.	!
{8d	Jch
=1	=1
4g	ging
8g	durch
8b/	ei-
8g	-nen
8b/	gras-
=2	=2
8.ddL	-grü-
16eeJ	.
(16ddL	-nen
16ccJ)	.
4b}	Wald,
{8a	da
=3	=3
8b	hört
8a	ich
8b	die
8.dd	Vö-
16cc	-ge-
8b	-lein
=4	=4
4.a	ſin-
4g}	-gen;
{8g	ſie
=5	=5
8a	ſan-
8a	-gen
8b	ſo
4cc	jung,
8a	ſie
=6	=6
8b	ſan-
8b	-gen
8cc	ſo
4dd}	alt,
{8b	die
=7	=7
4a	klei-
8b	-nen
(8cc	Vö-
8b)	-ge-
8a	-lein
=8	=8
4b	in
8cc	dem
4dd}	Wald,
{8a	die
=9	=9
8b	hör
8a	ich
8b	ſo
8.dd	ger-
16cc	-ne
8b	wohl
=10	=10
4.a	ſin-
4g}	-gen.
==	==
!!!AGN: Liebes - Lied
!!!ONB: ESAC (Essen Associative Code) Database: ERK1
!!!AMT: compound duple
!!!AIN: vox
!!!EED: Helmut Schaffrath
!!!EEV: 1.0
!!!GTL: Liebeslieder [Neuere (aus dem 18. bis 19. Jahrh.) - Liebeslust]
!!!URL-scan: https://rosdok.uni-rostock.de/mcrviewer/recordIdentifier/rosdok_ppn745177662/iview2/phys_0394.iview2?x=-128.77276441889308&y=204.77940603974275&scale=0.5870222003877485&rotation=0&layout=singlePageLayout
!!!ENC: Anna Maria Matuszewska
!!!EEV: 2024/10/12
*-	*-
